X:1
T:O felice mio core
T:Stafano Landi
T:Source : Arie---Sesto libro---Venetia---B.Magni---1638. Editor : André Vierendeels (21/08/17).
T:Notes : Original clefs : C1, F4 Editorial accidentals above the staff Original note values have been halved   
T:O felice mio core
T:©
T:©
T:©
C:Stafano Landi
Z:©
%%score 1 2
L:1/8
Q:1/4=120
M:6/4
K:C
V:1 treble nm="Soprano" snm="S"
V:2 bass nm="MusicXML Part"
V:1
 z2 c3 d e2 d3 c | B2 c2 ^G2 A4 B2 |[M:3/4] B6 |[M:4/4] z BBB B2 B2 | z BBB A4 | d4 d4 | %6
w: O fe- li- ce'o fe-|li- ce mio co- *|re,|se gia pian- ge- sti|e so- spir sti|tan- to|
w: O fe- li- ce'o fe-|li- ce mia spe- *|me,|se tan- te vol- te|al- lo spa- van-|to'in brac|
w: O fr- li- ce'o fe-|li- ce mia vi- *|ta,|se gia con- tra- rie|a te fu- ron|le stel-|
 d2 dd d3 e | e2 e2 z ddc | c3 B B4 | BBBB d4 | ^G2 A4 G2 | A8 :| z2 B2 c2 d2 | e3 d c2 e2 | %14
w: do- po si lun- go|pian- to ha tre- gua'il|mio do- lo-|re, ha tre- gua'il mio|do- lo- *|re,|se quel che|pian- go- no pur|
w: cio ti fa- ce- sti|ghiac- cio ti- mo- re'hor|non ti pre-|ne, quei si so- spi-|ra- * *|no,|bel lam- po|che spa- ri, bel|
w: le'al fin con le pro-|cel- le o- gni nu-|b'è spa- ri-|ta, quei che si dol-|go- * *|no,|che va- na'è|la lor fè, al|
 fe dc B3 A | A8 | z2 A2 B2 c2 | d3 c B2 d2 | ed cB A3 G | G2 B2 B2 B2 | cB AG ^F4 | G2 e2 e2 e2 | %22
w: co- * m'io _ pian- si|gia,|al fin ri-|man- go- no con|l'a- * ma- * ta bel-|tà nes- sun con-|dan- * n'A- * mo-|re, nes- sun con-|
w: lam- * po- * che spa-|ri,|al fin pur|mi- ra- no far-|to- * se- * re- no'il|di nel- le lor-|gi- * o'i'es- * tre-|me, le- le lor-|
w: fin- * rac- * col- go-|no,|al fin rac-|col- go- no la|bra- * ma- * * ta|mer, dop- po'il duol|piu- * gra- * di-|ta, dop- po'il duol|
 fe dc B4 |[M:6/4] A2 c3 d e2 d3 c | B2 c2 ^G2 A4 B2 | B2 B3 c d2 c3 d | e2 d3 e f2 f2 e2 | %27
w: dan- * n'A- * mo-|re, O fe- li- ce'o fe-|li- ce mio co- *|re, O fe- li- ce'o fe-|li- ce'o fe- li- ce mio|
w: gi- * oi'es- * stre-|me, O fe- li- ce'o fe-|li- ce mia spe- *|me, O fe- li- ce'o fe-|li- ce'o fe- li- ce mia|
w: piu- * gra- * di-|ta, O fe- li- ce'o fe-|li- ce mia vi- *|ta, O fe- li- ce'o fe-|li- ce'o fe- li- ve mia|
 d4 c2 c2 E3 ^F | G2 A3 E ^F2 ^G2 A2 | B2 c2 d2 !fermata!A6 :| %30
w: co- * re, O fe-|li- ce'o fe- li- ce mio|co- * * re.|
w: spe- * me, O fe-|li- ce'o fe- li- ce mia|spe- * * me.|
w: vi- * ta, O- fe-|li- ce'o fe- li- ce mia|vi- * ta. _|
V:2
"^BC" z2 A,3 B, C2 B,3 A, |"^7 6" ^G,2 A,2 E,2 F,6 |[M:3/4]"^#3" E,6 |[M:4/4]"^#3" E,8 | %4
"^#6" E,4 A,4 | G,8 | ^G,8 | ^G,8 |"^6 5""^4#3" A,4 B,4 |"^#3""^-natural2" E,4 D,4 |"^7 6 5" E,8 | %11
 A,,8 :|"^#3""^6" E,4 C,2 B,,2 |"^6" A,,3 B,, C,2 A,,2 |"^6 5""^4 3" D,4 E,4 | A,,8 | %16
 D,4 B,,2 A,,2 | G,,3 A,, B,,2 G,,2 | C,4 D,4 | G,,4 G,4 | A,4 B,4 | E,4 C,4 | D,4 E,4 | %23
[M:6/4] A,,2 A,3 B, C2 B,3 A, | ^G,2 A,2 E,2 F,6 |"^#3" E,6 D,2 F,4 |"^6""^5" E,2 G,4 F,4 F,2 | %27
"^4 3" G,6 C,2 C,3 D, |"^6" E,2 F,3 C, D,2 E,2 F,2 |"^4 3" E,6 !fermata!A,,6 :| %30

